X: 1
T:Dorset 4 hand reel (1)
R:Reel
O:England
M:4/4
K:G
| "G"G2B2 d2cB | "C"c2e2 c2e2 | "G"G2B2 d3c | "D7"B2A2 A2BA | \
| "G"G2B2 d2cB | "C"c2e2 c2e2 | "G"G2B2 "D7"d3c | "G"B2G2 G4 ::
| "C"g2g2 gfe2 | "G"d2d2 dcB2 | "Am"A2AB c2cd | "D7"e2d2 d2ef | \
| "C"g2g2 gfe2 | "G"d2d2 dcB2 | "Am"A2AB "D7"c2A2 | "(G)"A2G2 "G"G4 :|
